X:1048
T:McFarlane's Strathspey.
M:C
L:1/8
Q:1/4=124
I: :: ::
Z:Jack Campin * www.campin.me.uk * 2009
K:D
e| fA A/A/A e>dce| fA A/A/A Te2 de| fA A/A/A e>dBg|a>ef>d Te2d:|
e|TfdTfd    e>dBe|TfdTfd    Te2 de|TfdTfd   Ted`Bg|a>efd  Te2d:|
<end>
<start>
